X: 1
T:Fjorton \aar tror jag visst att jag var
C:anon.
O:Sweden
Z:Transcribed by Frank Nordberg - http://www.musicaviva.com
M:C
L:1/8
K:D
A>A|"D"F2D>D"G"B,2CD|"Em"E6G>B|"D"(BA) AA "A7"AA Af|"D"d6AA|
w:Fjor- ton \aar tror jag visst att jag va' li- ten flic-* ka s\aa mun- ter och s\aa gla'! In- gen
"D"F2D>D"G"B,2CD|"Em"E4 z G GB|"D"B2AA"A7"A2G>C|"D"D6A2||
w:fri- a- re h\"or- de jag \aa', och in- gen t\"ank- te jag hel- ler up- p\aa. Tra-
M:3/4
L:1/8
"D"Afd3F|"A7"GAG3E|"A7"CEB3A|"D"G2F2z A|
